svgs/light/camera-polaroid.svg

<svg xmlns="http://www.w3.org/2000/svg" viewBox="0 0 576 512"><!-- Font Awesome Pro 6.0.0-alpha2 by @fontawesome - https://fontawesome.com License - https://fontawesome.com/license (Commercial License) --><path d="M288 112C243.891 112 208 147.875 208 192S243.891 272 288 272S368 236.125 368 192S332.109 112 288 112ZM288 240C261.531 240 240 218.469 240 192S261.531 144 288 144S336 165.531 336 192S314.469 240 288 240ZM561.977 318.467L512 256V96C512 60.652 483.348 32 448 32H128C92.654 32 64 60.652 64 96V256L14.025 318.471C4.947 329.818 0 343.918 0 358.451V416C0 451.199 28.801 480 64 480H512C547.201 480 576 451.199 576 416V358.447C576 343.916 571.055 329.814 561.977 318.467ZM96 267.225V96C96 78.326 110.328 64 128 64H448C465.674 64 480 78.326 480 96V267.225L522.221 320H53.779L96 267.225ZM544 416C544 433.6 529.6 448 512 448H64C46.4 448 32 433.6 32 416V352.143L32.143 352H543.857C543.914 352.055 543.945 352.086 544 352.143V416ZM464 384H112C103.164 384 96 391.162 96 400C96 408.836 103.164 416 112 416H464C472.838 416 480 408.836 480 400C480 391.162 472.838 384 464 384ZM416 104C402.746 104 392 114.744 392 128C392 141.254 402.746 152 416 152C429.256 152 440 141.254 440 128C440 114.744 429.256 104 416 104Z"/></svg>

<svg xmlns="http://www.w3.org/2000/svg" viewBox="0 0 576 512"><!--! Font Awesome Pro 6.3.0 by @fontawesome - https://fontawesome.com License - https://fontawesome.com/license (Commercial License) Copyright 2023 Fonticons, Inc. --><path d="M288 112c-44.11 0-80 35.88-80 80s35.89 80 80 80s80-35.88 80-80S332.1 112 288 112zM288 240C261.5 240 240 218.5 240 192S261.5 144 288 144s48 21.53 48 48S314.5 240 288 240zM561.1 318.5L512 256L512 96c0-35.35-28.65-64-64-64H128C92.65 32 64 60.65 64 96l.0001 160L14.03 318.5C4.947 329.8 0 343.9 0 358.5V416c0 35.2 28.8 64 64 64h448c35.2 0 64-28.8 64-64v-57.55C576 343.9 571.1 329.8 561.1 318.5zM96 267.2V96c0-17.67 14.33-32 32-32h320c17.67 0 32 14.33 32 32v171.2L522.2 320H53.78L96 267.2zM544 416c0 17.6-14.4 32-32 32H64c-17.6 0-32-14.4-32-32v-63.86l511.9-.0713c.0566 .0547-.0547-.0566 0 0L544 416zM464 384h-352C103.2 384 96 391.2 96 400C96 408.8 103.2 416 112 416h352c8.838 0 16-7.164 16-16C480 391.2 472.8 384 464 384zM416 104c-13.25 0-24 10.74-24 24c0 13.25 10.75 24 24 24c13.26 0 24-10.75 24-24C440 114.7 429.3 104 416 104z"/></svg>
